src/epub/images/titlepage.svg

<?xml version="1.0" encoding="utf-8"?>
<svg xmlns="http://www.w3.org/2000/svg" xmlns:svg="http://www.w3.org/2000/svg" version="1.1" viewBox="0 0 1400 440">
	<title>The titlepage for the Standard Ebooks edition of The Railway Children</title>
	<g>
		<path d="m 605.01389,68.245613 18.33918,0 0,61.754387 17.59064,0 0,-61.754387 18.33918,0 0,-15.438597 -54.269,0 0,15.438597 z"/>
		<path d="m 688.20833,99.029239 24.88889,0 0,30.970761 17.59065,0 0,-77.192984 -17.59065,0 0,30.783626 -24.88889,0 0,-30.783626 -17.59064,0 0,77.192984 17.59064,0 0,-30.970761 z"/>
		<path d="m 791.23612,52.807016 -44.16374,0 0,77.192984 44.16374,0 0,-15.4386 -26.5731,0 0,-15.532161 25.45029,0 0,-15.438597 -25.45029,0 0,-15.345029 26.5731,0 0,-15.438597 z"/>
	</g>
	<g>
		<path d="m 185.10964,152.80702 0,77.19298 17.59064,0 0,-30.50292 23.57895,30.50292 22.36258,0 -26.5731,-31.90643 c 9.45029,-2.99416 15.81286,-10.76024 15.81286,-22.36258 0,-15.15789 -10.8538,-22.92397 -25.16959,-22.92397 l -27.60234,0 z m 17.59064,34.24561 0,-20.21053 2.05848,0 c 6.64328,0 14.5965,0.46784 14.5965,10.10527 0,9.63742 -7.95322,10.10526 -14.5965,10.10526 l -2.05848,0 z"/>
		<path d="m 296.38304,152.80702 -16.2807,0 -31.1579,77.19298 18.90059,0 5.7076,-15.4386 29.38012,0 5.7076,15.4386 18.90058,0 -31.15789,-77.19298 z m 0.5614,46.31579 -17.40351,0 8.60819,-22.45614 0.18713,0 8.60819,22.45614 z"/>
		<path d="m 353.05118,152.80702 -17.59065,0 0,77.19298 17.59065,0 0,-77.19298 z"/>
		<path d="m 386.92544,152.80702 -17.59064,0 0,77.19298 44.16374,0 0,-15.4386 -26.5731,0 0,-61.75438 z"/>
		<path d="m 486.37719,230 19.46199,0 21.9883,-77.19298 -19.46199,0 -13.19298,52.95906 -0.46784,0 -14.03509,-52.95906 -13.28655,0 -14.03508,52.95906 -0.46784,0 -13.19298,-52.95906 -19.55556,0 L 442.11988,230 461.67543,230 474.02631,186.67836 486.37719,230 Z"/>
		<path d="m 567.66228,152.80702 -16.2807,0 -31.1579,77.19298 18.90059,0 5.7076,-15.4386 29.38012,0 5.7076,15.4386 18.90059,0 -31.1579,-77.19298 z m 0.5614,46.31579 -17.4035,0 8.60818,-22.45614 0.18714,0 8.60818,22.45614 z"/>
		<path d="m 589.91228,152.80702 28.44445,42.5731 0,34.61988 17.59064,0 0,-34.61988 28.44445,-42.5731 -21.1462,0 -16.09357,24.70175 -16.09357,-24.70175 -21.1462,0 z"/>
		<path d="m 740.96637,214.09357 c -17.68422,0 -25.4503,-12.35088 -25.4503,-22.73685 0,-10.29239 7.76608,-22.64327 25.4503,-22.64327 8.98245,0 15.15789,4.77193 15.15789,4.77193 l 7.48538,-14.97076 c 0,0 -8.60819,-7.11111 -25.35672,-7.11111 -21.89474,0 -41.82457,17.96491 -41.82457,40.14035 0,22.08187 20.0234,39.85965 41.82457,39.85965 16.74853,0 25.35672,-7.11111 25.35672,-7.11111 l -7.48538,-14.97076 c 0,0 -6.17544,4.77193 -15.15789,4.77193 z"/>
		<path d="m 792.8392,199.02924 24.88889,0 0,30.97076 17.59064,0 0,-77.19298 -17.59064,0 0,30.78362 -24.88889,0 0,-30.78362 -17.59064,0 0,77.19298 17.59064,0 0,-30.97076 z"/>
		<path d="m 869.29385,152.80702 -17.59064,0 0,77.19298 17.59064,0 0,-77.19298 z"/>
		<path d="m 903.16812,152.80702 -17.59064,0 0,77.19298 44.16374,0 0,-15.4386 -26.5731,0 0,-61.75438 z"/>
		<path d="m 943.39181,152.80702 0,77.19298 22.36257,0 c 21.23977,0 38.92402,-16.09357 38.92402,-38.64328 0,-22.45614 -17.77782,-38.5497 -38.92402,-38.5497 l -22.36257,0 z m 17.59064,61.47368 0,-45.75439 2.71345,0 c 13.09942,0 21.9883,10.0117 21.9883,22.92398 -0.0936,12.91228 -8.98245,22.83041 -21.9883,22.83041 l -2.71345,0 z"/>
		<path d="m 1017.4708,152.80702 0,77.19298 17.5906,0 0,-30.50292 23.579,30.50292 22.3626,0 -26.5731,-31.90643 c 9.4502,-2.99416 15.8128,-10.76024 15.8128,-22.36258 0,-15.15789 -10.8538,-22.92397 -25.1696,-22.92397 l -27.6023,0 z m 17.5906,34.24561 0,-20.21053 2.0585,0 c 6.6433,0 14.5965,0.46784 14.5965,10.10527 0,9.63742 -7.9532,10.10526 -14.5965,10.10526 l -2.0585,0 z"/>
		<path d="m 1133.7033,152.80702 -44.1638,0 0,77.19298 44.1638,0 0,-15.4386 -26.5731,0 0,-15.53216 25.4502,0 0,-15.4386 -25.4502,0 0,-15.34503 26.5731,0 0,-15.43859 z"/>
		<path d="m 1166.4065,182.09357 0.1871,0 30.6901,47.90643 17.5906,0 0,-77.19298 -17.5906,0 0,47.90643 -0.1872,0 -30.69,-47.90643 -17.5907,0 0,77.19298 17.5907,0 0,-47.90643 z"/>
	</g>
	<g>
		<path d="m 548.81634,332.10526 -33.12281,0 0,57.89474 33.12281,0 0,-11.57895 -19.92983,0 0,-11.64912 19.08772,0 0,-11.57895 -19.08772,0 0,-11.50877 19.92983,0 0,-11.57895 z"/>
		<path d="m 569.40077,374.98246 c -4.42105,0 -8,3.57894 -8,8.07017 0,4.42105 3.57895,8 8,8 4.49123,0 8.07017,-3.57895 8.07017,-8 0,-4.49123 -3.57894,-8.07017 -8.07017,-8.07017 z"/>
		<path d="m 628.31634,354.07018 0.14035,0 23.01754,35.92982 13.19299,0 0,-57.89474 -13.19299,0 0,35.92983 -0.14035,0 -23.01754,-35.92983 -13.19298,0 0,57.89474 13.19298,0 0,-35.92982 z"/>
		<path d="m 711.22314,332.10526 -33.12281,0 0,57.89474 33.12281,0 0,-11.57895 -19.92983,0 0,-11.64912 19.08772,0 0,-11.57895 -19.08772,0 0,-11.50877 19.92983,0 0,-11.57895 z"/>
		<path d="m 745.14091,331.05263 c -9.33333,0 -18.87719,6.8772 -18.87719,17.68421 0,6.03509 4.07017,11.4386 11.01754,14.8772 6.87719,3.43859 13.05263,5.33333 13.05263,9.54385 0,5.40351 -5.47368,5.68422 -8.35088,5.68422 -6.45614,0 -14.17543,-6.52632 -14.17543,-6.52632 l -6.59649,11.08772 c 0,0 8.21052,7.64912 21.75438,7.64912 11.29825,0 21.82456,-4.8421 21.82456,-18.66666 0,-7.57895 -7.08772,-13.05264 -13.54386,-15.78948 -6.59649,-2.80702 -12.07017,-5.12281 -12.07017,-8.35088 0,-3.15789 2.38596,-5.19298 6.87719,-5.19298 5.96491,0 11.7193,4 11.7193,4 l 5.33333,-10.52631 c 0,0 -7.43859,-5.47369 -17.96491,-5.47369 z"/>
		<path d="m 775.95669,332.10526 0,57.89474 21.96491,0 c 12,0 18.94737,-6.59649 18.94737,-16.14035 0,-9.33333 -5.12281,-13.33333 -12.35088,-14.59649 4.91228,-2.52632 7.22807,-7.08772 7.22807,-12.42105 0,-11.01755 -7.85965,-14.73685 -17.82456,-14.73685 l -17.96491,0 z m 13.19298,22.66667 0,-12.49123 1.05263,0 c 5.75439,0 8.77193,1.75439 8.77193,5.89474 0,4.8421 -3.08772,6.59649 -8.77193,6.59649 l -1.05263,0 z m 0,25.05263 0,-13.68421 4.14035,0 c 6.24561,0 9.68421,1.89474 9.68421,7.22807 0,4.5614 -3.4386,6.45614 -9.68421,6.45614 l -4.14035,0 z"/>
		<path d="m 840.88761,332.10526 -13.19298,0 0,57.89474 13.19298,0 0,-57.89474 z"/>
		<path d="m 847.27466,343.68421 13.75439,0 0,46.31579 13.19298,0 0,-46.31579 13.75439,0 0,-11.57895 -40.70176,0 0,11.57895 z"/>
	</g>
</svg>

<?xml version="1.0" encoding="utf-8"?>
<svg xmlns="http://www.w3.org/2000/svg" xmlns:svg="http://www.w3.org/2000/svg" version="1.1" viewBox="0 0 1400 440">
	<title>The titlepage for the Standard Ebooks edition of The Railway Children</title>
	<g aria-label="THE">
		<path d="m 605.10526,68.245613 h 18.33918 V 130 h 17.59065 V 68.245613 h 18.33918 V 52.807016 h -54.26901 z"/>
		<path d="M 688.29971,99.029239 H 713.1886 V 130 h 17.59064 V 52.807016 H 713.1886 V 83.590642 H 688.29971 V 52.807016 H 670.70906 V 130 h 17.59065 z"/>
		<path d="M 791.14474,52.807016 H 746.981 V 130 h 44.16374 v -15.4386 h -26.5731 V 99.029239 h 25.45029 V 83.590642 H 764.57164 V 68.245613 h 26.5731 z"/>
	</g>
	<g aria-label="RAILWAY CHILDREN">
		<path d="M 185.10964,152.80702 V 230 h 17.59064 V 199.49708 L 226.27923,230 h 22.36258 l -26.5731,-31.90643 c 9.45029,-2.99416 15.81286,-10.76024 15.81286,-22.36258 0,-15.15789 -10.8538,-22.92397 -25.16959,-22.92397 z m 17.59064,34.24561 V 166.8421 h 2.05848 c 6.64328,0 14.5965,0.46784 14.5965,10.10527 0,9.63742 -7.95322,10.10526 -14.5965,10.10526 z"/>
		<path d="m 296.38304,152.80702 h -16.2807 L 248.94444,230 h 18.90059 l 5.7076,-15.4386 h 29.38012 L 308.64035,230 h 18.90058 z m 0.5614,46.31579 h -17.40351 l 8.60819,-22.45614 h 0.18713 z"/>
		<path d="M 353.05118,152.80702 H 335.46053 V 230 h 17.59065 z"/>
		<path d="M 386.92544,152.80702 H 369.3348 V 230 h 44.16374 v -15.4386 h -26.5731 z"/>
		<path d="m 486.37719,230 h 19.46199 l 21.9883,-77.19298 h -19.46199 l -13.19298,52.95906 h -0.46784 l -14.03509,-52.95906 h -13.28655 l -14.03508,52.95906 h -0.46784 L 439.68713,152.80702 H 420.13157 L 442.11988,230 h 19.55555 l 12.35088,-43.32164 z"/>
		<path d="m 567.66228,152.80702 h -16.2807 L 520.22368,230 h 18.90059 l 5.7076,-15.4386 h 29.38012 L 579.91959,230 h 18.90059 z m 0.5614,46.31579 h -17.4035 l 8.60818,-22.45614 h 0.18714 z"/>
		<path d="m 589.91228,152.80702 28.44445,42.5731 V 230 h 17.59064 v -34.61988 l 28.44445,-42.5731 h -21.1462 l -16.09357,24.70175 -16.09357,-24.70175 z"/>
		<path d="m 740.96637,214.09357 c -17.68422,0 -25.4503,-12.35088 -25.4503,-22.73685 0,-10.29239 7.76608,-22.64327 25.4503,-22.64327 8.98245,0 15.15789,4.77193 15.15789,4.77193 l 7.48538,-14.97076 c 0,0 -8.60819,-7.11111 -25.35672,-7.11111 -21.89474,0 -41.82457,17.96491 -41.82457,40.14035 0,22.08187 20.0234,39.85965 41.82457,39.85965 16.74853,0 25.35672,-7.11111 25.35672,-7.11111 l -7.48538,-14.97076 c 0,0 -6.17544,4.77193 -15.15789,4.77193 z"/>
		<path d="m 793.02194,199.02924 h 24.88889 V 230 h 17.59064 v -77.19298 h -17.59064 v 30.78362 H 793.02194 V 152.80702 H 775.4313 V 230 h 17.59064 z"/>
		<path d="M 869.29385,152.80702 H 851.70321 V 230 h 17.59064 z"/>
		<path d="M 903.16812,152.80702 H 885.57748 V 230 h 44.16374 v -15.4386 h -26.5731 z"/>
		<path d="M 943.39181,152.80702 V 230 h 22.36257 c 21.23977,0 38.92402,-16.09357 38.92402,-38.64328 0,-22.45614 -17.77782,-38.5497 -38.92402,-38.5497 z m 17.59064,61.47368 v -45.75439 h 2.71345 c 13.09942,0 21.9883,10.0117 21.9883,22.92398 -0.0936,12.91228 -8.98245,22.83041 -21.9883,22.83041 z"/>
		<path d="M 1017.4708,152.80702 V 230 h 17.5906 V 199.49708 L 1058.6404,230 h 22.3626 l -26.5731,-31.90643 c 9.4502,-2.99416 15.8128,-10.76024 15.8128,-22.36258 0,-15.15789 -10.8538,-22.92397 -25.1696,-22.92397 z m 17.5906,34.24561 V 166.8421 h 2.0585 c 6.6433,0 14.5965,0.46784 14.5965,10.10527 0,9.63742 -7.9532,10.10526 -14.5965,10.10526 z"/>
		<path d="m 1133.7033,152.80702 h -44.1638 V 230 h 44.1638 v -15.4386 h -26.5731 v -15.53216 h 25.4502 v -15.4386 h -25.4502 v -15.34503 h 26.5731 z"/>
		<path d="m 1166.4065,182.09357 h 0.1871 L 1197.2837,230 h 17.5906 v -77.19298 h -17.5906 v 47.90643 h -0.1872 l -30.69,-47.90643 h -17.5907 V 230 h 17.5907 z"/>
	</g>
	<g aria-label="E. NESBIT">
		<path d="M 548.81634,332.10526 H 515.69353 V 390 h 33.12281 v -11.57895 h -19.92983 v -11.64912 h 19.08772 v -11.57895 h -19.08772 v -11.50877 h 19.92983 z"/>
		<path d="m 569.40077,374.98246 c -4.42105,0 -8,3.57894 -8,8.07017 0,4.42105 3.57895,8 8,8 4.49123,0 8.07017,-3.57895 8.07017,-8 0,-4.49123 -3.57894,-8.07017 -8.07017,-8.07017 z"/>
		<path d="m 628.31634,354.07018 h 0.14035 L 651.47423,390 h 13.19299 v -57.89474 h -13.19299 v 35.92983 h -0.14035 L 628.31634,332.10526 H 615.12336 V 390 h 13.19298 z"/>
		<path d="M 711.22314,332.10526 H 678.10033 V 390 h 33.12281 v -11.57895 h -19.92983 v -11.64912 h 19.08772 v -11.57895 h -19.08772 v -11.50877 h 19.92983 z"/>
		<path d="m 745.14091,331.05263 c -9.33333,0 -18.87719,6.8772 -18.87719,17.68421 0,6.03509 4.07017,11.4386 11.01754,14.8772 6.87719,3.43859 13.05263,5.33333 13.05263,9.54385 0,5.40351 -5.47368,5.68422 -8.35088,5.68422 -6.45614,0 -14.17543,-6.52632 -14.17543,-6.52632 l -6.59649,11.08772 c 0,0 8.21052,7.64912 21.75438,7.64912 11.29825,0 21.82456,-4.8421 21.82456,-18.66666 0,-7.57895 -7.08772,-13.05264 -13.54386,-15.78948 -6.59649,-2.80702 -12.07017,-5.12281 -12.07017,-8.35088 0,-3.15789 2.38596,-5.19298 6.87719,-5.19298 5.96491,0 11.7193,4 11.7193,4 l 5.33333,-10.52631 c 0,0 -7.43859,-5.47369 -17.96491,-5.47369 z"/>
		<path d="M 775.95669,332.10526 V 390 h 21.96491 c 12,0 18.94737,-6.59649 18.94737,-16.14035 0,-9.33333 -5.12281,-13.33333 -12.35088,-14.59649 4.91228,-2.52632 7.22807,-7.08772 7.22807,-12.42105 0,-11.01755 -7.85965,-14.73685 -17.82456,-14.73685 z m 13.19298,22.66667 V 342.2807 h 1.05263 c 5.75439,0 8.77193,1.75439 8.77193,5.89474 0,4.8421 -3.08772,6.59649 -8.77193,6.59649 z m 0,25.05263 v -13.68421 h 4.14035 c 6.24561,0 9.68421,1.89474 9.68421,7.22807 0,4.5614 -3.4386,6.45614 -9.68421,6.45614 z"/>
		<path d="M 840.88761,332.10526 H 827.69463 V 390 h 13.19298 z"/>
		<path d="m 847.27466,343.68421 h 13.75439 V 390 h 13.19298 v -46.31579 h 13.75439 v -11.57895 h -40.70176 z"/>
	</g>
</svg>
